X:1
T:Joyful, Joyful, We Adore Thee
T:Joyful, Joyful, We Adore Thee
T:Ludwig van Beethoven, 1824
T:Henry Jackson van Dyke, 1907
T:Public Domain Courtesy of the Cyber Hymnal™
T:Public Domain Courtesy of the Cyber Hymnal™
C:Ludwig van Beethoven, 1824
Z:Public Domain
Z:Courtesy of the Cyber Hymnal™
%%score ( 1 2 ) ( 3 4 )
L:1/8
Q:1/4=110
M:4/4
K:G
V:1 treble 
V:2 treble 
V:3 bass 
V:4 bass 
V:1
 [DB]2 [DB]2 [Dc]2 [Dd]2 | [Dd]2 c2 [GB]2 [DA]2 | [DG]2 [DG]2 [FA]2 [GB]2 | [GB]3 [FA] [FA]4 | %4
w: 1.~Joy- ful, joy- ful,|we a- dore Thee,|God of glo- ry,|Lord of love;|
w: 2.~All Thy works with|joy sur- round Thee,|earth and heaven re-|flect Thy rays,|
w: 3.~Thou art giv- ing|and for- giv- ing,|ev- er bless- ing,|ev- er blessed,|
w: 4.~Mor- tals, join the|hap- py chor- us,|which the morn- ing|stars be- gan;|
 [GB]2 [DB]2 [Ec]2 [=Fd]2 | [=Fd]2 [Ec]2 [DB]2 [EA]2 | [DG]2 [DG]2 [FA]2 [GB]2 | [FA]3 G G4 | %8
w: Hearts un- fold like|flowers be- fore Thee,|open- ing to the|sun a- bove.|
w: Stars and an- gels|sing a- round Thee,|cen- ter of un-|brok- en praise.|
w: Well- spring of the|joy of liv- ing,|o- cean depth of|hap- py rest!|
w: Fa- ther love is|reign- ing o’er us,|bro- ther love binds|man to man.|
 [FA]2 [DA]2 [DB]2 G2 | [FA]2 ([GB][Fc]) [GB]2 G2 | [FA]2 (Bc) [FB]2 [^DA]2 | G2 [^CA]2 D4 | %12
w: Melt the clouds of|sin and * sad- ness;|drive the * dark of|doubt a- way;|
w: Field and for- est,|vale and * mount- ain,|flow- ery * mea- dow,|flash- ing sea,|
w: Thou our fa- ther,|Christ our * bro- ther,|all who * live in|love are Thine;|
w: Ev- er sing- ing,|march we * on- ward,|vic- tors * in the|midst of strife,|
 [DB]2 [DB]2 [Ec]2 [=Fd]2 | [=Fd]2 [Ec]2 [DB]2 [EA]2 | [DG]2 [DG]2 [FA]2 [GB]2 | [FA]3 G G4 |] %16
w: Giv- er of im-|mor- tal glad- ness,|fill us with the|light of day!|
w: Sing- ing bird and|flow- ing fount- ain|call us to re-|joice in Thee.|
w: Teach us how to|love each o- ther,|lift us to the|joy di- vine.|
w: Joy- ful mu- sic|leads us Sun- ward|in the tri- umph|song of life.|
V:2
 x8 | x2 (EF) x4 | x8 | x8 | x8 | x8 | x8 | x3 G G4 | x6 G2 | x6 G2 | x2 F2 x4 | (ED) x D4 x | x8 | %13
 x8 | x8 | x3 G G4 |] %16
V:3
 G,2 G,2 [G,A,]2 [G,B,]2 | [D,B,]2 [D,A,]2 [D,G,]2 [C,F,]2 | [B,,G,]2 [B,,B,]2 [A,,C]2 [G,,D]2 | %3
 [D,D]3 [D,D] [D,D]4 | [G,D]2 [G,D]2 [G,C]2 [G,B,]2 | [C,G,]2 [C,A,]2 [C,B,]2 [C,C]2 | %6
 [D,B,]2 [D,B,]2 [D,C]2 [D,D]2 | [D,C]3 [G,B,] [G,B,]4 | [D,D]2 [D,F,]2 [D,G,]2 [D,B,]2 | %9
 [D,C]2 (B,A,) [D,G,]2 [D,B,]2 | [D,C]2 (B,A,) [^D,B,]2 [B,,B,]2 | [E,B,]2 (A,G,) [D,F,]4 | %12
 G,2 [G,D]2 [G,C]2 [G,B,]2 | [C,G,]2 [C,A,]2 [C,B,]2 [C,C]2 | [D,B,]2 [D,B,]2 [D,C]2 [D,D]2 | %15
 [D,C]3 [G,B,] [G,B,]4 |] %16
V:4
 G,2 G,2 x4 | x8 | x8 | x8 | x8 | x8 | x8 | x8 | x8 | x2 D,2 x4 | x2 ^D,2 x4 | x2 A,,2 x4 | x8 | %13
 x8 | x8 | x8 |] %16

